dist/assets/images/vkIco.svg

<svg width="20" height="20" viewBox="0 0 20 20" fill="none" xmlns="http://www.w3.org/2000/svg">
<path fill-rule="evenodd" clip-rule="evenodd" d="M19.801 5.71296L19.9005 5.81481C20.0995 6.22222 19.5025 7.24074 18.3085 8.76852C18.1095 9.07407 17.9104 9.27778 17.6119 9.68518C17.3134 9.99074 17.1144 10.2963 17.0149 10.3981C16.9154 10.5 16.8159 10.7037 16.7164 10.9074C16.6169 11.1111 16.5174 11.213 16.6169 11.3148C16.6169 11.4167 16.7164 11.5185 16.7164 11.6204C16.8159 11.8241 16.9154 12.0278 17.1144 12.1296C17.3134 12.2315 17.5124 12.4352 17.7114 12.6389C17.7114 12.6389 17.7114 12.6389 17.8109 12.6389C18.806 13.5556 19.403 14.2685 19.801 14.8796C19.801 14.8796 19.801 14.9815 19.9005 14.9815C19.9005 15.0833 19.9005 15.0833 20 15.287C20 15.3889 20 15.4907 20 15.5926C20 15.6944 19.9005 15.7963 19.7015 15.8981C19.602 16 19.3035 16 19.1045 16H16.4179C16.2189 16 16.0199 16 15.8209 15.8981C15.6219 15.7963 15.4229 15.7963 15.3234 15.6944L15.1244 15.5926C14.9254 15.4907 14.6269 15.1852 14.4279 14.9815C14.1294 14.6759 13.9303 14.4722 13.7313 14.1667C13.5323 13.963 13.3333 13.7593 13.1343 13.5556C12.9353 13.3519 12.7363 13.3519 12.5373 13.3519C12.5373 13.3519 12.5373 13.3519 12.4378 13.3519C12.4378 13.3519 12.3383 13.4537 12.2388 13.4537C12.1393 13.5556 12.0398 13.6574 12.0398 13.7593C11.9403 13.8611 11.9403 14.0648 11.8408 14.2685C11.7413 14.4722 11.7413 14.7778 11.7413 15.0833C11.7413 15.1852 11.7413 15.287 11.7413 15.3889C11.7413 15.4907 11.6418 15.4907 11.6418 15.5926V15.6944C11.5423 15.7963 11.3433 15.8981 11.0448 15.8981H9.75124C9.25373 15.8981 8.75622 15.8981 8.25871 15.6944C7.76119 15.5926 7.26368 15.3889 6.86567 15.1852C6.46766 15.1852 6.06965 14.9815 5.77114 14.7778C5.47264 14.5741 5.27363 14.3704 5.07463 14.1667L4.77612 13.963C4.77612 13.8611 4.67662 13.7593 4.47761 13.6574C4.37811 13.4537 4.1791 13.1481 3.78109 12.6389C3.38308 12.2315 3.08458 11.7222 2.68657 11.1111C2.28856 10.6019 1.89055 9.88889 1.39303 8.97222C0.895522 8.05556 0.497512 7.13889 0.0995025 6.22222C0 6.12037 0 6.01852 0 5.91667C0 5.81481 0 5.81481 0 5.71296L0 5.61111C0.0995025 5.50926 0.298507 5.40741 0.597015 5.40741H3.48259C3.58209 5.40741 3.68159 5.40741 3.68159 5.50926C3.78109 5.50926 3.78109 5.61111 3.8806 5.61111H3.9801C4.0796 5.71296 4.1791 5.81481 4.1791 6.01852C4.27861 6.32407 4.47761 6.73148 4.67662 7.03704C4.87562 7.44444 4.97512 7.75 5.07463 7.85185L5.27363 8.15741C5.47264 8.56481 5.67164 8.87037 5.87065 9.17593C6.06965 9.48148 6.26866 9.68518 6.36816 9.88889C6.46766 10.0926 6.66667 10.2963 6.76617 10.2963C6.96517 10.3981 7.06468 10.5 7.16418 10.5C7.26368 10.5 7.36318 10.5 7.46269 10.3981C7.46269 10.3981 7.46269 10.3981 7.56219 10.2963C7.56219 10.2963 7.66169 10.1944 7.66169 10.0926C7.76119 9.99074 7.76119 9.78704 7.76119 9.58333C7.76119 9.37963 7.8607 9.07407 7.8607 8.76852C7.8607 8.46296 7.8607 7.9537 7.8607 7.44444C7.8607 7.13889 7.8607 6.93519 7.76119 6.73148C7.76119 6.52778 7.66169 6.32407 7.66169 6.22222H7.56219C7.36318 6.01852 7.06468 5.81481 6.66667 5.81481C6.56716 5.81481 6.56716 5.71296 6.76617 5.61111C6.76617 5.40741 6.96517 5.30556 7.06468 5.2037C7.46269 5.10185 8.25871 5 9.55224 5C10.1493 5 10.5473 5.10185 10.9453 5.10185C11.0448 5.10185 11.2438 5.2037 11.2438 5.2037C11.3433 5.30556 11.4428 5.30556 11.4428 5.40741C11.4428 5.50926 11.5423 5.61111 11.5423 5.71296C11.5423 5.81481 11.5423 6.01852 11.5423 6.22222C11.5423 6.42593 11.5423 6.62963 11.5423 6.83333C11.5423 7.03704 11.5423 7.24074 11.5423 7.5463C11.5423 7.85185 11.5423 8.15741 11.5423 8.36111C11.5423 8.46296 11.5423 8.56481 11.5423 8.76852C11.5423 8.97222 11.5423 9.17593 11.5423 9.27778C11.5423 9.37963 11.5423 9.48148 11.5423 9.68518C11.5423 9.88889 11.6418 9.99074 11.6418 10.0926C11.7413 10.1944 11.7413 10.2963 11.8408 10.2963C11.9403 10.2963 11.9403 10.2963 12.0398 10.2963C12.1393 10.2963 12.2388 10.2963 12.3383 10.1944C12.4378 10.0926 12.6368 9.99074 12.7363 9.88889C12.8358 9.78704 13.0348 9.48148 13.2338 9.17593C13.4328 8.87037 13.7313 8.46296 13.9303 8.05556C14.3284 7.34259 14.7264 6.62963 15.0249 5.71296C15.0249 5.61111 15.1244 5.61111 15.1244 5.50926L15.2239 5.40741H15.3234C15.3234 5.40741 15.3234 5.40741 15.4229 5.40741C15.5224 5.40741 15.6219 5.40741 15.6219 5.40741H18.607C18.9055 5.40741 19.1045 5.40741 19.3035 5.40741C19.7015 5.61111 19.801 5.61111 19.801 5.71296Z" fill="#15112B"/>
</svg>

<svg width="20" height="20" fill="none" xmlns="http://www.w3.org/2000/svg"><path fill-rule="evenodd" clip-rule="evenodd" d="M19.801 5.713l.1.102c.198.407-.398 1.426-1.593 2.954-.198.305-.398.509-.696.916-.299.306-.498.611-.597.713-.1.102-.2.306-.299.51-.1.203-.199.305-.1.407 0 .102.1.204.1.305.1.204.2.408.398.51.2.101.398.305.597.509h.1c.995.917 1.592 1.63 1.99 2.24 0 0 0 .103.1.103 0 .101 0 .101.099.305v.306c0 .101-.1.203-.299.305-.099.102-.398.102-.596.102h-2.687c-.2 0-.398 0-.597-.102-.2-.102-.398-.102-.498-.204l-.199-.101c-.199-.102-.497-.408-.696-.611-.299-.306-.498-.51-.697-.815l-.597-.611c-.199-.204-.398-.204-.597-.204h-.1s-.099.102-.198.102c-.1.102-.2.203-.2.305-.099.102-.099.306-.198.51-.1.203-.1.509-.1.814v.306c0 .102-.1.102-.1.204v.101c-.099.102-.298.204-.596.204H9.75c-.497 0-.995 0-1.492-.204a5.666 5.666 0 01-1.393-.509c-.398 0-.796-.204-1.095-.407a4.358 4.358 0 01-.696-.611l-.299-.204c0-.102-.1-.204-.298-.306-.1-.203-.299-.509-.697-1.018-.398-.407-.696-.917-1.094-1.528-.398-.51-.796-1.222-1.294-2.139C.896 8.056.498 7.14.1 6.222 0 6.12 0 6.02 0 5.917V5.61c.1-.102.299-.204.597-.204h2.886c.1 0 .199 0 .199.102.1 0 .1.102.199.102h.1c.099.102.198.204.198.408.1.305.299.712.498 1.018.199.407.298.713.398.815l.199.305c.199.408.398.713.597 1.019.199.305.398.51.497.713.1.204.299.407.398.407.2.102.299.204.398.204.1 0 .2 0 .299-.102l.1-.102s.099-.102.099-.203c.1-.102.1-.306.1-.51 0-.203.099-.509.099-.814V7.444c0-.305 0-.509-.1-.713 0-.203-.1-.407-.1-.509h-.099c-.199-.203-.497-.407-.895-.407-.1 0-.1-.102.1-.204 0-.204.198-.305.298-.407C7.463 5.102 8.259 5 9.552 5c.597 0 .995.102 1.393.102.1 0 .299.102.299.102.1.102.199.102.199.203 0 .102.1.204.1.306v3.972c0 .204.099.306.099.408.1.101.1.203.199.203h.199c.1 0 .199 0 .298-.102.1-.101.299-.203.398-.305.1-.102.299-.408.498-.713.199-.306.497-.713.696-1.12.398-.713.796-1.426 1.095-2.343 0-.102.1-.102.1-.204l.099-.102h4.08c.398.204.497.204.497.306z" fill="#15112B"/></svg>
